X:1
T:Se per te moro
T:Se per te moro
T:Giovanni Maria Artusi
T:Source : Canzonette a 4 voci---Libro primo---Venetia---C.Vincenti---1598. Editor : André Vierendeels (25/02/14).
C:Giovanni Maria Artusi
%%score [ 1 2 [ 3 4 ] ]
L:1/8
Q:1/4=80
M:4/4
K:C
V:1 treble nm="Canto 1" snm="C 1"
V:2 treble nm="Canto 2" snm="C 2"
V:3 treble-8 nm="Tenor 1" snm="T 1"
V:4 treble-8 nm="Tenor 2" snm="T 2"
V:1
 A6 AA | d4 c4 | c8 | B8 | z8 | G2 GG G2 G2 | G2 A2 F2 F2 | E4 ^F4 | ^F6 FF | G8 | A4 E2 F2 | %11
w: Se per te|mo- ro'A-|min-|ta,||Fil- li di- cea- da|gra- ve duol so-|spin- ta,|se per te|mo-|ro'A- min- *|
 ^G2 A4 G2 | A4 A2 AA | B2 B2 c2 B2 | B2 c2 A4- | A4 A4 | z8 | z4 z2 c2 | A3 B c2 A2 | G4 G2 F2 | %20
w: |ta, Fil- li di-|cea da gra- ve|duol so- spin-|* ta,||per-|che ri- cu- si'al-|me- no, ba-|
 E3 E E2 F2 | G6 F2 | E4 A4- | A4 G4- | G2 G2 F4- | F4 E4 | z4 z2 A2 | A2 A2 d3 c | _B3 A G3 F | %29
w: cia- mi'u- na sol|vol- *|ta, Hai|_ cru-|* do co-|* re,|ne-|gar un ba- cio'a|chi per te _|
 E2 D2 E4 | D8 | z2 D2 F3 F | G4 D4 | A8 | A8 |] %35
w: _ si mo-|re,|a chi per|te si|mo-|re.|
V:2
 ^F6 FF | G8 | A4 E2 F2 | ^G2 A4 G2 | A4 A2 AA | B2 B2 c2 B2 | B2 c2 A4- | A4 A4 | A6 AA | d4 c4 | %10
w: Se per te|mo-|ro'A- min- *||ta, Fil- li di-|cea da gra- ve|duol so- spin-|* ta,|se per te|mo- ro'A-|
 c8 | B8 | z8 | G2 GG G2 G2 | G2 A2 F2 F2 | E4 ^F4 |"^-natural" z2 F2 G3 A | F2 G2 A4 | A4 z2 F2 | %19
w: min-|ta,||Fi- li di- cea da|gra- ve duol so-|spin- ta,|per- che ri-|cu- si'al- me-|no, ba-|
 E3 c c2 A2 | A4 A2 A2 | G3 c c2 A2 | A4 A4 | z4 z2 c2 | c4 A4 | A8 | A8 | z2 D2 F3 F | G4 D4 | %29
w: ciar- mi'u- na sol|vol- ta, ba-|ciar- mi'u- na sol|vol- ta,|Hai|cru- do|co-|re,|a chi per|te si|
 A8 | A4 z2 A2 | A2 A2 d3 c | _B3 A G3 F | E2 D2 E4 | ^F8 |] %35
w: mo-|re, ne-|gar un ba- cio'a|chi per te si|mo- * *|re.|
V:3
 d6 dd | B4 c4 | A2 B2 c2 d2 | e4 e4 | ^c2 cc d4 | d4 e4- | e2 e2 d2 d2 | ^c4 d4 | d6 dd | B4 c4 | %10
w: Se per te|mo- ro'A-|min- * * *|* ta,|Fil- li d- cea|da gra-|* ve duol so-|spin- ta;|se per te|mo- ro'A-|
 A2 B2 c2 d2 | e4 e4 | ^c2 cc d4 | d4 e4- | e2 e2 d2 d2 | ^c4 d4 | z2 d2 e3 e | d2 e2 f4 | %18
w: min- * * *|* ta,|Fil- li di- cea|da gra-|* ve duol so-|spin- ta,|per- che ri-|cu- si'al- me-|
 c4 z2 c2 | e3 e e2 d2 | ^c4 c2 d2 | e3 e e2 d2 | c4 f4- | f4 e4- | e4 d4 | ^c4 c4 | z2 f2 f2 f2 | %27
w: no, ba-|ciar- mi'u- na sol|vol- ta, ba-|ciar- mi'u- na sol|vol- t'hai|_ cru-|* do|co- re,|ne- gar un|
 f3 e d3 d | d6 d2 | ^c2 d4 c2 | d2 f2 f2 f2 | f3 e d3 d | d6 d2 | ^c2 d4 c2 | d8 |] %35
w: ba- cio'a chi per|te si|mo- * *|re, ne- gar un|ba- cio'a chi per|te si|mo- * *|re.|
V:4
 z8 | z8 | z8 | z8 | A2 AA ^F4 | G4 E4- | E2 C2 D2 D2 | A4 D4 | z8 | z8 | z8 | z8 | A2 AA ^F4 | %13
w: ||||Fil- li di- cea|da gra-|* ve duol so-|spin- ta,|||||Fil- li di- cea|
 G4 E4- | E2 C2 D2 D2 | A4 D4 | z2 d2 c3 A | _B2 G2 F4 | F4 z2 F2 | c3 c c2 d2 | A4 A2 F2 | %21
w: da gra-|* ve duol so-|spin- ta,|per- che ri-|cu- si'al- me-|no, ba-|ciar- mi'u- na sol|vol- ta, ba-|
 c3 c c2 d2 | A4 A4 | c8 | E4 F4 | A4 A4 | z2 D2 D2 D2 | d3 c _B3 A | G4 G4 | A8 | D2 D2 D2 D2 | %31
w: ciar- mi'u- na sol|vol- ta,|Hai|cru- di|co- re,|ne- gar un|ba- cio'a chi per|te si|mo-|re, ne- gar un|
"^b" d3 c B3 A | G4 G4 | A8 | D8 |] %35
w: ba- cio'a chi per|te si|mo-|re.|

